icons/folder_type_shared.svg

<svg xmlns="http://www.w3.org/2000/svg" viewBox="0 0 32 32"><defs><clipPath id="a"><path d="M0 0h32v32H0z" style="fill:none"/></clipPath></defs><g style="clip-path:url(#a)"><path d="M27.5 5.5h-9.3l-2.1 4.2H4.4v16.8h25.2v-21Zm0 4.2h-8.2l1.1-2.1h7.1Z" style="fill:#764af1"/><path d="M15 11a4 4 0 0 0-4 4v6a4 4 0 0 0 4 4h6.17a3 3 0 1 0 0-2H15a2 2 0 0 1-2-2v-6a2 2 0 0 1 2-2h6a2 2 0 0 1 2 2h2a4 4 0 0 0-4-4Zm12 20a4 4 0 0 0 4-4v-6a4 4 0 0 0-4-4h-6.17a3 3 0 1 0 0 2H27a2 2 0 0 1 2 2v6a2 2 0 0 1-2 2h-6a2 2 0 0 1-2-2h-2a4 4 0 0 0 4 4Z" style="fill:#b094ff"/><path d="M17 26.5v.5h2v-.5Z" style="fill:#b094ff"/></g></svg>

<svg xmlns="http://www.w3.org/2000/svg" xmlns:xlink="http://www.w3.org/1999/xlink" viewBox="0 0 32 32"><defs><clipPath id="a"><rect width="32" height="32" style="fill:none"/></clipPath></defs><title>folder_type_shared</title><g style="clip-path:url(#a)"><path d="M27.5,5.5H18.2L16.1,9.7H4.4V26.5H29.6V5.5Zm0,4.2H19.3l1.1-2.1h7.1Z" style="fill:#764af1"/><path d="M15,11a4,4,0,0,0-4,4v6a4,4,0,0,0,4,4h6.17a3,3,0,1,0,0-2H15a2,2,0,0,1-2-2V15a2,2,0,0,1,2-2h6a2,2,0,0,1,2,2h2a4,4,0,0,0-4-4ZM27,31a4,4,0,0,0,4-4V21a4,4,0,0,0-4-4H20.83a3,3,0,1,0,0,2H27a2,2,0,0,1,2,2v6a2,2,0,0,1-2,2H21a2,2,0,0,1-2-2H17a4,4,0,0,0,4,4Z" style="fill:#b094ff"/><path d="M17,26.5V27h2v-.5Z" style="fill:#b094ff"/></g></svg>
